udata_front/theme/gouvfr/templates/svg/actions/star.svg

<svg height="15" viewBox="0 0 16 15" width="16" xmlns="http://www.w3.org/2000/svg"><path d="m7.20703 1.24224-1.77735 3.63672-4.01953.57422c-.710936.10937-.984374.98437-.464842 1.50391l2.871092 2.8164-.68359 3.96481c-.10938.711.65625 1.2578 1.28515.9297l3.58204-1.8867 3.5547 1.8867c.6289.3281 1.3945-.2187 1.2851-.9297l-.6836-3.96481 2.8711-2.8164c.5196-.51954.2461-1.39454-.4648-1.50391l-3.9922-.57422-1.80468-3.63672c-.30078-.628904-1.23047-.656248-1.55859 0z" stroke="#3558a2"/></svg>

<svg aria-hidden="true" width="16" height="15" viewBox="0 0 16 15" xmlns="http://www.w3.org/2000/svg">
<path d="M7.20703 1.24224L5.42968 4.87896L1.41015 5.45318C0.699214 5.56255 0.425776 6.43755 0.945308 6.95709L3.8164 9.77349L3.13281 13.7383C3.02343 14.4493 3.78906 14.9961 4.41796 14.668L8 12.7813L11.5547 14.668C12.1836 14.9961 12.9492 14.4493 12.8398 13.7383L12.1562 9.77349L15.0273 6.95709C15.5469 6.43755 15.2734 5.56255 14.5625 5.45318L10.5703 4.87896L8.76562 1.24224C8.46484 0.613336 7.53515 0.585992 7.20703 1.24224Z" stroke="#3558A2"/>
</svg>
